actions/22/code-typedef.svg

<svg xmlns="http://www.w3.org/2000/svg" viewBox="0 0 22 22">
  <defs id="defs3051">
    <style type="text/css" id="current-color-scheme">
      .ColorScheme-Text {
        color:#808080;
      }
      </style>
  </defs>
 <path 
     style="fill:currentColor;fill-opacity:1;stroke:none" 
	 d="m5 3c-1.108 0-2 .892-2 2 0 1.108.892 2 2 2v3h-2v1 6 1h2v1h14v-3h-14v1h-1v-6h1v2 .652344.347656h14v-.347656-.652344-8h-12c0-1.108-.892-2-2-2m0 1c.554 0 1 .446 1 1 0 .554-.446 1-1 1-.554 0-1-.446-1-1 0-.554.446-1 1-1m1 2h12v7h-12v-7"
	 class="ColorScheme-Text"
     />
</svg>

<svg xmlns="http://www.w3.org/2000/svg" version="1.1" viewBox="0 0 22 22">
 <defs>
  <style id="current-color-scheme" type="text/css">
   .ColorScheme-Text { color:#808080; }
  </style>
 </defs>
 <path class="ColorScheme-Text" d="M 5,3 C 3.892,3 3,3.892 3,5 3,6.108 3.892,7 5,7 V 10 H 3 V 11 17 18 H 5 V 19 H 19 V 16 H 5 V 17 H 4 V 11 H 5 V 13 13.652 14 H 19 V 13.652 13 5 H 7 C 7,3.892 6.108,3 5,3 M 5,4 C 5.554,4 6,4.446 6,5 6,5.554 5.554,6 5,6 4.446,6 4,5.554 4,5 4,4.446 4.446,4 5,4 M 6,6 H 18 V 13 H 6 V 6" style="color:#808080;fill:currentColor"/>
</svg>
